X:1
T:Lourdes, LMD
T:Daniel Brink Towner, 1905
T:Lourdes, LMD
T:Public Domain
C:Daniel Brink Towner, 1905
Z:Public Domain
%%score ( 1 2 ) ( 3 4 )
L:1/8
M:3/4
K:G
V:1 treble 
V:2 treble 
V:3 bass 
V:4 bass 
V:1
 [B,D][B,D] [DG] | [GB]3 [Ac] [FA][FB] | G3 [DG] [DF][DG] | [DA][CD] [B,G]2 [DA]2 | %4
 [DB]3 [B,D] [B,D][DG] | [GB]3 [Ac] [FA][FB] | G3 [GB] [FA][FA] | [GB][GB] [G^c]2 [GA]2 | [Fd]3 | %9
[M:4/4] ded | z FFF [Fc]Adc | z DDD [DB][GB][Ac][GB] | [FA]4- [FA][DF][EG][^CE] | D4- DDGA | %14
 z DDD [DB]cBA | z CCC [CE][EG][DF][CE] |[M:3/4] [B,D][DG] [DA]2 [DF]2 | [DG]3 |] %18
V:2
 x3 | x6 | G3 x3 | x6 | x6 | x6 | G3 x3 | x6 | x3 |[M:4/4] x3 | c4- x4 | B4- x4 | x8 | D4- D x3 | %14
 B4- x4 | E4- x4 |[M:3/4] x6 | x3 |] %18
V:3
 G,G, [G,B,] | [G,D]3 [D,D] [D,D][D,D] | [G,B,]3 [G,B,] A,[G,B,] | [D,F,][D,F,] [E,G,]2 [D,F,]2 | %4
 G,3 G, G,[G,B,] | [G,D]3 [D,D] [D,D][D,D] | [G,B,]3 [G,D] [D,D][D,D] | [G,D][G,D] A,2 A,2 | %8
 [D,A,]3 |[M:4/4] B,CB, | z D,D,D, [D,A,]F,B,A, | G,G,G,G, G, z3 | %12
 z [A,D][F,D][D,D] [A,,D]2 (A,G,) | [D,F,]2 [D,F,]2 [D,F,] z3 | z G,G,G, G, z3 | %15
 z [C,G,][C,G,][C,G,] [C,G,][C,G,][C,G,][C,G,] |[M:3/4] [D,G,][D,B,] [D,C]2 [D,A,]2 | [G,,G,B,]3 |] %18
V:4
 G,G, x | x6 | x4 A, x | x6 | G,3 G, G, x | x6 | x6 | x2 A,2 A,2 | x3 |[M:4/4] x3 | A,4- x4 | x8 | %12
 x6 A,,2 | x8 | x G,G,G, G, x3 | x8 |[M:3/4] x6 | x3 |] %18

